X: 21308
T: Kenhuel
R: waltz
M: 3/4
K: Bdorian
Bc de fa|~g2 eg fd|Bc de fa|~g2 eg f2:|
=g2 fe dc|BA Bc df|=g2 fe dc|e/f/e dc B2|
=g2 fe dc|BA =GA Bc|dA Bc de|f=g ef ga||

